actions/24/kt-speed-limits.svg

<?xml version="1.0" encoding="UTF-8" standalone="no"?>
<svg
   width="24"
   height="24"
   version="1.1"
   id="svg9"
   sodipodi:docname="kt-speed-limits.svg"
   inkscape:version="1.1.2 (0a00cf5339, 2022-02-04)"
   xmlns:inkscape="http://www.inkscape.org/namespaces/inkscape"
   xmlns:sodipodi="http://sodipodi.sourceforge.net/DTD/sodipodi-0.dtd"
   xmlns="http://www.w3.org/2000/svg"
   xmlns:svg="http://www.w3.org/2000/svg">
  <sodipodi:namedview
     id="namedview11"
     pagecolor="#000000"
     bordercolor="#666666"
     borderopacity="1.0"
     inkscape:pageshadow="2"
     inkscape:pageopacity="0"
     inkscape:pagecheckerboard="0"
     showgrid="false"
     inkscape:zoom="227.33333"
     inkscape:cx="6.8907626"
     inkscape:cy="11.982405"
     inkscape:window-width="1482"
     inkscape:window-height="967"
     inkscape:window-x="0"
     inkscape:window-y="29"
     inkscape:window-maximized="1"
     inkscape:current-layer="g7" />
  <defs
     id="defs3">
    <style
       id="current-color-scheme"
       type="text/css">
   .ColorScheme-Text { color:#eeeeec; } .ColorScheme-Highlight { color:#367bf0; } .ColorScheme-NeutralText { color:#ffcc44; } .ColorScheme-PositiveText { color:#3db47e; } .ColorScheme-NegativeText { color:#dd4747; }
  </style>
  </defs>
  <g
     transform="translate(4,4)"
     id="g7">
    <path
       style="fill:currentColor"
       class="ColorScheme-Text"
       d="M 0.51758,8.1368 C 0.46788,8.1224 0.41382,8.1289 0.36914,8.1563 0.32446,8.1838 0.29281,8.23 0.2793,8.2833 0.09448,9.014 0,9.7707 0,10.533 c 0,0.131 0.00373,0.262 0.00977,0.401 0.00483,0.111 0.09019,0.199 0.19335,0.199 H 0.21289 L 2.5391,11.018 C 2.5905,11.015 2.6392,10.99 2.6738,10.949 2.7085,10.908 2.727,10.854 2.7246,10.799 2.7206,10.705 2.7187,10.618 2.7187,10.533 2.7187,10.028 2.7804,9.5288 2.9023,9.047 2.9303,8.936 2.8691,8.8212 2.7656,8.7911 Z M 4.7383,8.0997 4.4609,8.3849 v 0 l 1.586,3.1871 C 6.0159108,11.712563 6.0001863,11.856061 6,12 c 0,1.104569 0.8954305,2 2,2 1.1045695,0 2,-0.895431 2,-2 0,-1.104569 -0.8954305,-2 -2,-2 -0.077077,8.87e-4 -0.1540392,0.0062 -0.2305,0.016 z M 15.393,7.8302 13.168,8.5763 c -0.102,0.0343 -0.159,0.152 -0.127,0.2617 0.16,0.5461 0.24,1.1164 0.24,1.695 0,0.085 -0.002,0.172 -0.006,0.266 -0.002,0.055 0.016,0.109 0.051,0.15 0.035,0.041 0.084,0.066 0.135,0.069 l 2.328,0.115 h 0.008 c 0.103,0 0.188,-0.088 0.193,-0.199 C 15.996,10.795 16,10.664 16,10.533 16,9.6585 15.877,8.7952 15.635,7.9669 15.603,7.8572 15.495,7.7957 15.393,7.8302 Z M 2.8613,4.0392 C 2.8097,4.0356 2.7594,4.0535 2.7207,4.0899 2.0138,4.756 1.4269,5.5408 0.97656,6.4239 0.95188,6.4724 0.94645,6.5311 0.96094,6.5841 0.97542,6.6371 1.0075,6.6807 1.0527,6.7071 l 2.045,1.1992 c 0.0295,0.0174 0.0622,0.0254 0.0937,0.0254 0.0687,0 0.1347,-0.0402 0.1699,-0.1093 C 3.659,7.2386 4.048,6.72 4.5156,6.2794 4.5544,6.243 4.5768,6.1919 4.5801,6.1368 4.5834,6.0817 4.5672,6.0259 4.5332,5.9845 L 2.9941,4.1095 C 2.9602,4.068 2.9128,4.0427 2.8613,4.0392 Z M 12.902,3.8321 c -0.051,0.0057 -0.098,0.0334 -0.131,0.0762 l -1.47,1.9375 c -0.033,0.0429 -0.047,0.0974 -0.041,0.1523 0.005,0.055 0.03,0.1058 0.07,0.1407 0.483,0.4209 0.888,0.9225 1.207,1.4941 0.037,0.0652 0.102,0.1016 0.168,0.1016 0.034,0 0.068,-0.0093 0.1,-0.0293 l 2,-1.2813 C 14.849,6.3956 14.88,6.3505 14.893,6.297 14.905,6.2434 14.898,6.1862 14.871,6.1388 14.389,5.2746 13.775,4.5134 13.045,3.8771 13.005,3.8422 12.954,3.8266 12.902,3.8321 Z M 6.916,2.0353 C 5.9825,2.171 5.0878,2.4802 4.2559,2.9532 4.1611,3.0071 4.1256,3.1329 4.1758,3.2345 l 1.0918,2.207 c 0.0349,0.0705 0.1023,0.1094 0.1719,0.1094 0.0306,0 0.0608,-0.007 0.0898,-0.0235 C 6.0773,5.2159 6.6665,5.0133 7.2812,4.9239 7.3875,4.9085 7.4617,4.8035 7.4473,4.6896 L 7.1348,2.213 C 7.1204,2.0991 7.022,2.0199 6.916,2.0353 Z M 8.7793,1.9981 C 8.7277,1.9926 8.6765,2.008 8.6367,2.0431 8.597,2.0782 8.5733,2.1287 8.5684,2.1837 L 8.3418,4.67 c -0.0104,0.1144 0.069,0.2175 0.1758,0.2285 0.6183,0.0642 1.2136,0.243 1.7714,0.5313 0.027,0.0137 0.057,0.0195 0.086,0.0195 0.022,0 0.042,-0.0039 0.063,-0.0117 0.048,-0.0182 0.088,-0.0557 0.111,-0.1055 l 1.012,-2.25 C 11.607,2.9786 11.567,2.8547 11.471,2.8048 10.623,2.367 9.7173,2.0956 8.7793,1.9981 Z"
       id="path5"
       sodipodi:nodetypes="cccscsccccsccccccccsscccccccscsccscsccccccccsccscccccccccscccccccsccscccccccccccscccc" />
  </g>
</svg>

<svg xmlns="http://www.w3.org/2000/svg" width="24" height="24" version="1.1">
 <defs>
  <style id="current-color-scheme" type="text/css">
   .ColorScheme-Text { color:#eeeeec; } .ColorScheme-Highlight { color:#367bf0; } .ColorScheme-NeutralText { color:#ffcc44; } .ColorScheme-PositiveText { color:#3db47e; } .ColorScheme-NegativeText { color:#dd4747; }
  </style>
 </defs>
 <g transform="translate(4,4)">
  <path style="fill:currentColor" class="ColorScheme-Text" d="M 0.51758,8.1368 C 0.46788,8.1224 0.41382,8.1289 0.36914,8.1563 0.32446,8.1838 0.29281,8.23 0.2793,8.2833 0.09448,9.014 0,9.7707 0,10.533 0,10.664 0.00373,10.795 0.00977,10.934 0.0146,11.045 0.09996,11.133 0.20312,11.133 0.20616,11.133 0.20986,11.133 0.21289,11.133 L 2.5391,11.018 C 2.5905,11.015 2.6392,10.99 2.6738,10.949 2.7085,10.908 2.727,10.854 2.7246,10.799 2.7206,10.705 2.7187,10.618 2.7187,10.533 2.7187,10.028 2.7804,9.5288 2.9023,9.047 2.9303,8.936 2.8691,8.8212 2.7656,8.7911 Z M 4.6133,8.0704 C 4.571,8.0757 4.5304,8.0958 4.498,8.129 4.4333,8.1955 4.4187,8.3002 4.4609,8.3849 L 6.0469,11.572 A 2,2 0 0 0 6,12 2,2 0 0 0 8,14 2,2 0 0 0 10,12 2,2 0 0 0 8,10 2,2 0 0 0 7.7695,10.016 L 4.7383,8.0997 C 4.6997,8.0753 4.6555,8.0652 4.6133,8.0704 Z M 15.393,7.8302 13.168,8.5763 C 13.066,8.6106 13.009,8.7283 13.041,8.838 13.201,9.3841 13.281,9.9544 13.281,10.533 13.281,10.618 13.279,10.705 13.275,10.799 13.273,10.854 13.291,10.908 13.326,10.949 13.361,10.99 13.41,11.015 13.461,11.018 L 15.789,11.133 C 15.792,11.133 15.794,11.133 15.797,11.133 15.9,11.133 15.985,11.045 15.99,10.934 15.996,10.795 16,10.664 16,10.533 16,9.6585 15.877,8.7952 15.635,7.9669 15.603,7.8572 15.495,7.7957 15.393,7.8302 Z M 2.8613,4.0392 C 2.8097,4.0356 2.7594,4.0535 2.7207,4.0899 2.0138,4.756 1.4269,5.5408 0.97656,6.4239 0.95188,6.4724 0.94645,6.5311 0.96094,6.5841 0.97542,6.6371 1.0075,6.6807 1.0527,6.7071 L 3.0977,7.9063 C 3.1272,7.9237 3.1599,7.9317 3.1914,7.9317 3.2601,7.9317 3.3261,7.8915 3.3613,7.8224 3.659,7.2386 4.048,6.72 4.5156,6.2794 4.5544,6.243 4.5768,6.1919 4.5801,6.1368 4.5834,6.0817 4.5672,6.0259 4.5332,5.9845 L 2.9941,4.1095 C 2.9602,4.068 2.9128,4.0427 2.8613,4.0392 Z M 12.902,3.8321 C 12.851,3.8378 12.804,3.8655 12.771,3.9083 L 11.301,5.8458 C 11.268,5.8887 11.254,5.9432 11.26,5.9981 11.265,6.0531 11.29,6.1039 11.33,6.1388 11.813,6.5597 12.218,7.0613 12.537,7.6329 12.574,7.6981 12.639,7.7345 12.705,7.7345 12.739,7.7345 12.773,7.7252 12.805,7.7052 L 14.805,6.4239 C 14.849,6.3956 14.88,6.3505 14.893,6.297 14.905,6.2434 14.898,6.1862 14.871,6.1388 14.389,5.2746 13.775,4.5134 13.045,3.8771 13.005,3.8422 12.954,3.8266 12.902,3.8321 Z M 6.916,2.0353 C 5.9825,2.171 5.0878,2.4802 4.2559,2.9532 4.1611,3.0071 4.1256,3.1329 4.1758,3.2345 L 5.2676,5.4415 C 5.3025,5.512 5.3699,5.5509 5.4395,5.5509 5.4701,5.5509 5.5003,5.5439 5.5293,5.5274 6.0773,5.2159 6.6665,5.0133 7.2812,4.9239 7.3875,4.9085 7.4617,4.8035 7.4473,4.6896 L 7.1348,2.213 C 7.1204,2.0991 7.022,2.0199 6.916,2.0353 Z M 8.7793,1.9981 C 8.7277,1.9926 8.6765,2.008 8.6367,2.0431 8.597,2.0782 8.5733,2.1287 8.5684,2.1837 L 8.3418,4.67 C 8.3314,4.7844 8.4108,4.8875 8.5176,4.8985 9.1359,4.9627 9.7312,5.1415 10.289,5.4298 10.316,5.4435 10.346,5.4493 10.375,5.4493 10.397,5.4493 10.417,5.4454 10.438,5.4376 10.486,5.4194 10.526,5.3819 10.549,5.3321 L 11.561,3.0821 C 11.607,2.9786 11.567,2.8547 11.471,2.8048 10.623,2.367 9.7173,2.0956 8.7793,1.9981 Z"/>
 </g>
</svg>
